X:14
T:Champagne Brawl
M:C
R:scottische
K:D
DEFG A2d2|=cBAG F2EF|G2G2 F2EF|G2F2 E2D2|\
DEFG A2d2|=cBAG F2EF|G2G2 F2ED|[1 CDEC D4:|[2 CDEC D2|]
EF|G2FE F2EF|G2F2 EDEF|G2FE F2ED|[1 CDEC D2:|[2 CDEC D4|]

